X:214
T: ES SPIELT EIN HERR MIT SEINER MAGD
N: E0110E
O: Europa, Mitteleuropa, Deutschland; Oesterreich, Boehmen
R: erzaehlendes Volks - Lied, Sage, Liebe, Leid, Tod
M: 2/4
L: 1/16
K: Bb
Bc | d2B2B2d2 | c2A2A2
c2 | G2A2cBAG | G4F2
FF | G2E2E2GG | F2D2D2
F2 | G2A2c2A2 | c4B2

@@@ Tune index: 3864
